images/item-expert2.svg

<svg width="80" height="80" viewBox="0 0 80 80" fill="none" xmlns="http://www.w3.org/2000/svg">
<path fill-rule="evenodd" clip-rule="evenodd" d="M7.33334 63.1691C7.33171 63.8575 7.55367 64.3895 7.99711 64.833C8.44068 65.2765 8.97459 65.5001 9.66667 65.5001H32.5266C32.5222 65.491 32.5178 65.4818 32.5135 65.4727C32.1649 64.7393 32 63.9368 32 63.0834V60.8334H12V57.1667C12 56.3977 12.1766 55.6731 12.5425 55.0144C12.926 54.3242 13.4979 53.8006 14.2157 53.4409C17.1126 51.9632 20.1397 50.8262 23.2955 50.0304C26.4606 49.2323 29.6957 48.8335 32.9989 48.8334C34.0274 48.8312 35.0559 48.8735 36.0841 48.9603C36.9573 49.034 37.8286 49.1769 38.6977 49.3881L42.6679 45.4179C41.3333 45.1363 39.9987 44.8811 38.6644 44.6524C36.7749 44.3285 34.887 44.1667 33 44.1667C29.356 44.1667 25.7836 44.6015 22.2808 45.4706C18.7707 46.3416 15.3821 47.5937 12.1139 49.2278L12.1129 49.2283C10.6159 49.9748 9.45436 51.0505 8.60898 52.4688C7.75914 53.8945 7.33334 55.4536 7.33334 57.1667V63.1691ZM43.5102 44.5756C43.8957 44.6594 44.2812 44.7453 44.6667 44.8334L39 50.5001C38 50.2223 37 50.0412 36 49.9567C35 49.8723 34 49.8312 33 49.8334C29.7778 49.8334 26.6244 50.2223 23.54 51.0001C20.4556 51.7779 17.4978 52.889 14.6667 54.3334C14.1111 54.6112 13.6944 55.0001 13.4167 55.5001C13.1389 56.0001 13 56.5556 13 57.1667V59.8334H33V63.0834C33 63.8056 33.1389 64.459 33.4167 65.0434C33.4925 65.203 33.5767 65.3552 33.6691 65.5001C33.9151 65.8857 34.2199 66.219 34.5833 66.5001H9.66667C8.72223 66.5001 7.93001 66.1801 7.29001 65.5401C6.65001 64.9001 6.33112 64.109 6.33334 63.1667V57.1667C6.33334 55.2779 6.80556 53.5412 7.75001 51.9567C8.69445 50.3723 10 49.1645 11.6667 48.3334C15 46.6667 18.4578 45.389 22.04 44.5001C25.6222 43.6112 29.2756 43.1667 33 43.1667C34.9444 43.1667 36.8889 43.3334 38.8333 43.6667C40.3923 43.934 41.9513 44.237 43.5102 44.5756ZM24.2904 35.2096C26.7155 37.6347 29.6007 38.8334 33 38.8334C36.3993 38.8334 39.2845 37.6347 41.7096 35.2096C44.1346 32.7846 45.3333 29.8994 45.3333 26.5001C45.3333 23.1007 44.1346 20.2156 41.7096 17.7905C39.2845 15.3655 36.3993 14.1667 33 14.1667C29.6007 14.1667 26.7155 15.3655 24.2904 17.7905C21.8654 20.2156 20.6667 23.1007 20.6667 26.5001C20.6667 29.8994 21.8654 32.7846 24.2904 35.2096ZM23.5833 35.9167C26.1944 38.5279 29.3333 39.8334 33 39.8334C36.6667 39.8334 39.8056 38.5279 42.4167 35.9167C45.0278 33.3056 46.3333 30.1667 46.3333 26.5001C46.3333 22.8334 45.0278 19.6945 42.4167 17.0834C39.8056 14.4723 36.6667 13.1667 33 13.1667C29.3333 13.1667 26.1944 14.4723 23.5833 17.0834C20.9722 19.6945 19.6667 22.8334 19.6667 26.5001C19.6667 30.1667 20.9722 33.3056 23.5833 35.9167Z" fill="black"/>
<path fill-rule="evenodd" clip-rule="evenodd" d="M41.3333 63.5024C41.3317 64.1907 41.5537 64.7228 41.9971 65.1662C42.4407 65.6098 42.9746 65.8333 43.6667 65.8333H70.3357C71.0241 65.835 71.5561 65.613 71.9996 65.1696C72.4431 64.726 72.6667 64.1921 72.6667 63.5V62.165C72.6686 61.0189 72.3729 59.964 71.773 58.9808C71.1946 58.0329 70.3825 57.354 69.3023 56.9312L69.2924 56.9274L69.2826 56.9233C67.3473 56.1182 65.3429 55.5131 63.2684 55.1081C61.1911 54.7026 59.1019 54.5 57 54.5H56.999C54.8997 54.4978 52.812 54.6993 50.7349 55.1048C48.6607 55.5098 46.6554 56.1158 44.718 56.9231L44.7075 56.9274L44.6969 56.9316C43.6197 57.352 42.8088 58.0294 42.2303 58.9775C41.6303 59.9609 41.3333 61.0174 41.3333 62.1667V63.5024ZM51.7904 47.0429C53.209 48.4615 54.9247 49.1667 57 49.1667C59.0753 49.1667 60.791 48.4615 62.2096 47.0429C63.6281 45.6243 64.3333 43.9086 64.3333 41.8333C64.3333 39.7581 63.6281 38.0424 62.2096 36.6238C60.791 35.2052 59.0753 34.5 57 34.5C54.9247 34.5 53.209 35.2052 51.7904 36.6238C50.3719 38.0424 49.6667 39.7581 49.6667 41.8333C49.6667 43.9086 50.3719 45.6243 51.7904 47.0429ZM44.3333 56C43.0578 56.4978 42.0722 57.3167 41.3767 58.4567C40.6811 59.5967 40.3333 60.8333 40.3333 62.1667V63.5C40.3311 64.4422 40.65 65.2333 41.29 65.8733C41.93 66.5133 42.7222 66.8333 43.6667 66.8333H70.3333C71.2756 66.8356 72.0667 66.5167 72.7067 65.8767C73.3467 65.2367 73.6667 64.4444 73.6667 63.5V62.1667C73.6689 60.8356 73.3222 59.6 72.6267 58.46C71.9311 57.32 70.9444 56.5 69.6667 56C67.6689 55.1689 65.6 54.5444 63.46 54.1267C61.32 53.7089 59.1667 53.5 57 53.5C54.8356 53.4978 52.6833 53.7056 50.5433 54.1233C48.4033 54.5411 46.3333 55.1667 44.3333 56ZM51.0833 47.75C52.6945 49.3611 54.6667 50.1667 57 50.1667C59.3333 50.1667 61.3056 49.3611 62.9167 47.75C64.5278 46.1389 65.3333 44.1667 65.3333 41.8333C65.3333 39.5 64.5278 37.5278 62.9167 35.9167C61.3056 34.3056 59.3333 33.5 57 33.5C54.6667 33.5 52.6945 34.3056 51.0833 35.9167C49.4722 37.5278 48.6667 39.5 48.6667 41.8333C48.6667 44.1667 49.4722 46.1389 51.0833 47.75Z" fill="#FA6400"/>
</svg>

<svg xmlns="http://www.w3.org/2000/svg" width="80" height="80" fill="none"><path fill="#000" fill-rule="evenodd" d="M7.333 63.17c-.001.688.22 1.22.664 1.663.444.444.978.667 1.67.667h22.86a3.408 3.408 0 0 1-.014-.027c-.348-.734-.513-1.536-.513-2.39v-2.25H12v-3.666c0-.77.177-1.494.543-2.153.383-.69.955-1.213 1.673-1.573a43.129 43.129 0 0 1 9.08-3.41 39.542 39.542 0 0 1 9.703-1.198c1.028-.002 2.057.04 3.085.127.873.074 1.745.217 2.614.428l3.97-3.97a106.71 106.71 0 0 0-4.004-.766A33.467 33.467 0 0 0 33 44.167c-3.644 0-7.216.434-10.72 1.304a49.123 49.123 0 0 0-10.166 3.757h-.001a8.29 8.29 0 0 0-3.504 3.24c-.85 1.426-1.276 2.986-1.276 4.699v6.002ZM43.51 44.575c.386.083.771.17 1.157.257L39 50.5c-1-.278-2-.459-3-.543-1-.085-2-.126-3-.124A38.54 38.54 0 0 0 23.54 51a42.132 42.132 0 0 0-8.873 3.333c-.556.278-.973.667-1.25 1.167A3.373 3.373 0 0 0 13 57.167v2.666h20v3.25c0 .723.139 1.376.417 1.96a3.923 3.923 0 0 0 1.167 1.457H9.666c-.945 0-1.737-.32-2.377-.96-.64-.64-.959-1.431-.957-2.373v-6c0-1.89.473-3.626 1.417-5.21a9.29 9.29 0 0 1 3.917-3.624A50.12 50.12 0 0 1 22.04 44.5 45.338 45.338 0 0 1 33 43.167c1.944 0 3.889.166 5.833.5 1.56.267 3.118.57 4.677.909ZM24.29 35.21c2.425 2.425 5.31 3.623 8.71 3.623 3.4 0 6.285-1.198 8.71-3.623 2.425-2.425 3.623-5.31 3.623-8.71 0-3.4-1.198-6.284-3.623-8.71-2.425-2.424-5.31-3.623-8.71-3.623-3.4 0-6.285 1.199-8.71 3.624-2.425 2.425-3.623 5.31-3.623 8.71 0 3.398 1.198 6.284 3.623 8.709Zm-.707.707c2.611 2.61 5.75 3.916 9.417 3.916s6.806-1.305 9.417-3.916c2.61-2.611 3.916-5.75 3.916-9.417s-1.305-6.805-3.916-9.417c-2.611-2.61-5.75-3.916-9.417-3.916s-6.806 1.305-9.417 3.916c-2.61 2.612-3.916 5.75-3.916 9.417s1.305 6.806 3.916 9.417Z" clip-rule="evenodd"/><path fill="#FA6400" fill-rule="evenodd" d="M41.333 63.502c-.001.689.22 1.22.664 1.664.444.444.978.667 1.67.667h26.669c.688.002 1.22-.22 1.664-.663.443-.444.667-.978.667-1.67v-1.335a5.965 5.965 0 0 0-.894-3.184c-.578-.948-1.39-1.627-2.47-2.05l-.01-.004-.01-.004a31.16 31.16 0 0 0-6.015-1.815A32.641 32.641 0 0 0 57 54.5h-.001c-2.1-.002-4.187.2-6.264.605a31.091 31.091 0 0 0-6.017 1.818l-.01.004-.011.005c-1.077.42-1.888 1.097-2.467 2.045-.6.984-.897 2.04-.897 3.19v1.335Zm10.457-16.46c1.419 1.42 3.135 2.125 5.21 2.125s3.791-.706 5.21-2.124c1.418-1.419 2.123-3.134 2.123-5.21 0-2.075-.705-3.79-2.123-5.21C60.79 35.206 59.075 34.5 57 34.5s-3.791.705-5.21 2.124c-1.418 1.418-2.123 3.134-2.123 5.21 0 2.075.705 3.79 2.123 5.209ZM44.333 56c-1.275.498-2.26 1.317-2.956 2.457a6.993 6.993 0 0 0-1.044 3.71V63.5c-.002.942.317 1.733.957 2.373.64.64 1.432.96 2.377.96h26.666c.943.003 1.734-.316 2.374-.956.64-.64.96-1.433.96-2.377v-1.333a6.965 6.965 0 0 0-1.04-3.707c-.696-1.14-1.683-1.96-2.96-2.46a32.154 32.154 0 0 0-6.207-1.873 33.636 33.636 0 0 0-12.917-.004A32.094 32.094 0 0 0 44.333 56Zm6.75-8.25c1.611 1.611 3.584 2.417 5.917 2.417 2.333 0 4.306-.806 5.917-2.417 1.61-1.611 2.416-3.583 2.416-5.917 0-2.333-.805-4.305-2.416-5.916C61.306 34.306 59.333 33.5 57 33.5c-2.333 0-4.306.806-5.917 2.417-1.61 1.61-2.416 3.583-2.416 5.916 0 2.334.805 4.306 2.416 5.917Z" clip-rule="evenodd"/></svg>
